X: 38827
T: Summer
R: waltz
M: 3/4
K: Fmajor
|:C2 CD FG|A2 c2 BA|G2 A2 F2|D4 FD|C2 CD FG|A2 c2 BA|G2 F2 G2|G2 F2 G2|
C2 CD FG|A2 c2 BA|G2 A2 F2|D4 CD|F2 G2 A2|E3 F3|1 (F6|F4) FD:|2 (F6|F4)fe||
|:~d2 c3 A|c2 A2 G2|F2 G2 A2|C4 C2|D2 F2 G2|A3 B A2|~A2 (G4|G3) ffe|
~d2 c3 A|c2 A2 G2|F2 G2 A2|c4 E2|F2 G2 A2|E3 F3|1 (F6|F4)fe:|2 (F6|F6)||

